web/packages/design/src/ResourceIcon/assets/rabbitmq.svg

<svg width="72" height="72" viewBox="0 0 72 72" fill="none" xmlns="http://www.w3.org/2000/svg">
<g clip-path="url(#clip0_6841_31698)">
<path d="M69.1126 28.8036H46.0751C45.6954 28.806 45.319 28.733 44.9677 28.5888C44.6164 28.4447 44.2972 28.2322 44.0287 27.9637C43.7602 27.6953 43.5477 27.3762 43.4035 27.025C43.2593 26.6738 43.1863 26.2975 43.1886 25.9179V2.88582C43.1887 2.50771 43.1139 2.13332 42.9686 1.78421C42.8233 1.4351 42.6104 1.11816 42.3421 0.851629C42.0739 0.585098 41.7555 0.37424 41.4054 0.231188C41.0553 0.0881358 40.6804 0.015715 40.3022 0.0180931H31.6789C31.3007 0.015715 30.9258 0.0881358 30.5757 0.231188C30.2256 0.37424 29.9072 0.585098 29.639 0.851629C29.3707 1.11816 29.1578 1.4351 29.0125 1.78421C28.8672 2.13332 28.7924 2.50771 28.7925 2.88582V25.9179C28.7948 26.2975 28.7218 26.6738 28.5776 27.025C28.4334 27.3762 28.2209 27.6953 27.9524 27.9637C27.6839 28.2322 27.3647 28.4447 27.0134 28.5888C26.6621 28.733 26.2857 28.806 25.906 28.8036H17.2827C16.903 28.806 16.5266 28.733 16.1753 28.5888C15.824 28.4447 15.5048 28.2322 15.2363 27.9637C14.9678 27.6953 14.7553 27.3762 14.6111 27.025C14.4669 26.6738 14.3939 26.2975 14.3963 25.9179V2.88582C14.3987 2.50619 14.3256 2.12986 14.1814 1.77866C14.0372 1.42746 13.8247 1.10839 13.5562 0.839939C13.2877 0.571492 12.9685 0.359019 12.6172 0.214844C12.2659 0.0706691 11.8895 -0.00233815 11.5098 5.70822e-05H2.86847C2.49026 4.96038e-05 2.11579 0.0748191 1.76659 0.220063C1.4174 0.365306 1.10039 0.578156 0.833792 0.846363C0.567197 1.11457 0.356289 1.43284 0.213203 1.78285C0.0701165 2.13287 -0.00232157 2.50771 5.70958e-05 2.88582V69.1142C-0.00233871 69.4938 0.070686 69.8701 0.214895 70.2213C0.359105 70.5725 0.571629 70.8916 0.840139 71.1601C1.10865 71.4285 1.4278 71.641 1.77909 71.7852C2.13037 71.9293 2.50679 72.0023 2.88651 71.9999H69.1126C69.4923 72.0023 69.8688 71.9293 70.2201 71.7852C70.5713 71.641 70.8905 71.4285 71.159 71.1601C71.4275 70.8916 71.64 70.5725 71.7842 70.2213C71.9285 69.8701 72.0015 69.4938 71.9991 69.1142V31.7435C72.0088 31.3593 71.9411 30.9772 71.8002 30.6197C71.6592 30.2622 71.4479 29.9366 71.1786 29.6624C70.9094 29.3882 70.5877 29.1708 70.2328 29.0233C69.8779 28.8758 69.497 28.8011 69.1126 28.8036ZM57.5307 53.2605C57.5331 53.8281 57.4233 54.3906 57.2077 54.9156C56.9921 55.4407 56.6749 55.918 56.2743 56.3202C55.8737 56.7224 55.3975 57.0415 54.8733 57.2593C54.349 57.4771 53.7868 57.5891 53.2191 57.5891H47.4462C46.8784 57.5891 46.3163 57.4771 45.792 57.2593C45.2677 57.0415 44.7916 56.7224 44.391 56.3202C43.9904 55.918 43.6732 55.4407 43.4575 54.9156C43.2419 54.3906 43.1322 53.8281 43.1345 53.2605V47.507C43.1322 46.9394 43.2419 46.3769 43.4575 45.8519C43.6732 45.3268 43.9904 44.8495 44.391 44.4473C44.7916 44.0451 45.2677 43.7259 45.792 43.5082C46.3163 43.2904 46.8784 43.1783 47.4462 43.1783H53.2191C53.7868 43.1783 54.349 43.2904 54.8733 43.5082C55.3975 43.7259 55.8737 44.0451 56.2743 44.4473C56.6749 44.8495 56.9921 45.3268 57.2077 45.8519C57.4233 46.3769 57.5331 46.9394 57.5307 47.507V53.2605Z" fill="#FF6600"/>
</g>
<defs>
<clipPath id="clip0_6841_31698">
<rect width="72" height="72" fill="white"/>
</clipPath>
</defs>
</svg>

<svg xmlns="http://www.w3.org/2000/svg" width="72" height="72" fill="none" viewBox="0 0 72 72"><g clip-path="url(#clip0_6841_31698)"><path fill="#f60" d="M69.113 28.804H46.075a2.87 2.87 0 0 1-2.886-2.886V2.886A2.865 2.865 0 0 0 40.302.018H31.68a2.87 2.87 0 0 0-2.886 2.868v23.032a2.87 2.87 0 0 1-2.887 2.886h-8.623a2.87 2.87 0 0 1-2.887-2.886V2.886A2.867 2.867 0 0 0 11.51 0H2.868A2.87 2.87 0 0 0 0 2.886v66.228A2.867 2.867 0 0 0 2.887 72h66.226a2.87 2.87 0 0 0 2.886-2.886v-37.37a2.867 2.867 0 0 0-2.886-2.94M57.53 53.26a4.31 4.31 0 0 1-4.312 4.328h-5.773a4.31 4.31 0 0 1-4.311-4.328v-5.754a4.31 4.31 0 0 1 4.311-4.329h5.773a4.31 4.31 0 0 1 4.312 4.329z"/></g><defs><clipPath id="clip0_6841_31698"><path fill="#fff" d="M0 0h72v72H0z"/></clipPath></defs></svg>
